dist/img/logo.svg

<svg width="152" height="27" fill="none" xmlns="http://www.w3.org/2000/svg"><path d="M80.74 2c0-1.105.91-2 2.015-2h60.383c.676 0 1.325.341 1.694.907l6.583 10.095a2 2 0 01.325 1.092V25a2 2 0 01-2 2h-67a2 2 0 01-2-2V2z" fill="url(#paint0_linear_2_101)"/><path d="M95.616 7.4c1.092 0 2.04.18 2.844.54.816.36 1.44.876 1.872 1.548.432.672.648 1.47.648 2.394 0 .912-.216 1.71-.648 2.394-.432.672-1.056 1.188-1.872 1.548-.804.36-1.752.54-2.844.54h-2.844V20h-2.34V7.4h5.184zm-.108 6.984c1.02 0 1.794-.216 2.322-.648.528-.432.792-1.05.792-1.854s-.264-1.422-.792-1.854c-.528-.432-1.302-.648-2.322-.648h-2.736v5.004h2.736zm13.871 5.796c-1.284 0-2.442-.276-3.474-.828a6.283 6.283 0 01-2.43-2.322c-.588-.996-.882-2.106-.882-3.33 0-1.224.294-2.328.882-3.312a6.116 6.116 0 012.43-2.322c1.032-.564 2.19-.846 3.474-.846 1.284 0 2.442.282 3.474.846a6.154 6.154 0 012.43 2.304c.588.984.882 2.094.882 3.33 0 1.236-.294 2.346-.882 3.33a6.283 6.283 0 01-2.43 2.322c-1.032.552-2.19.828-3.474.828zm0-2.052c.84 0 1.596-.186 2.268-.558a4.183 4.183 0 001.584-1.584c.384-.684.576-1.446.576-2.286 0-.84-.192-1.596-.576-2.268a4.022 4.022 0 00-1.584-1.584c-.672-.384-1.428-.576-2.268-.576-.84 0-1.596.192-2.268.576-.672.372-1.2.9-1.584 1.584-.384.672-.576 1.428-.576 2.268 0 .84.192 1.602.576 2.286.384.672.912 1.2 1.584 1.584.672.372 1.428.558 2.268.558zm15.152 2.052c-1.284 0-2.442-.276-3.474-.828a6.283 6.283 0 01-2.43-2.322c-.588-.996-.882-2.106-.882-3.33 0-1.224.294-2.328.882-3.312a6.116 6.116 0 012.43-2.322c1.032-.564 2.19-.846 3.474-.846 1.284 0 2.442.282 3.474.846a6.154 6.154 0 012.43 2.304c.588.984.882 2.094.882 3.33 0 1.236-.294 2.346-.882 3.33a6.283 6.283 0 01-2.43 2.322c-1.032.552-2.19.828-3.474.828zm0-2.052c.84 0 1.596-.186 2.268-.558a4.183 4.183 0 001.584-1.584c.384-.684.576-1.446.576-2.286 0-.84-.192-1.596-.576-2.268a4.022 4.022 0 00-1.584-1.584c-.672-.384-1.428-.576-2.268-.576-.84 0-1.596.192-2.268.576-.672.372-1.2.9-1.584 1.584-.384.672-.576 1.428-.576 2.268 0 .84.192 1.602.576 2.286.384.672.912 1.2 1.584 1.584.672.372 1.428.558 2.268.558zM133.797 7.4h2.34v10.62h6.588V20h-8.928V7.4z" fill="#fff"/><path d="M22.572 20.348V26H0v-4.464L12.708 6.452H.324V.8h21.708v4.464L9.324 20.348h13.248zM41.254 26l-5.22-7.812L30.886 26H22.75l9.18-12.744L23.146.8h8.028l5.04 7.272L41.182.8h7.704l-8.784 12.168L49.462 26h-8.208z" fill="#114E13"/><path d="M62.404 26.504c-2.64 0-5.016-.552-7.128-1.656-2.088-1.128-3.732-2.688-4.932-4.68-1.2-1.992-1.8-4.248-1.8-6.768 0-2.52.6-4.776 1.8-6.768 1.2-1.992 2.844-3.54 4.932-4.644C57.388.86 59.764.296 62.404.296c2.304 0 4.38.408 6.228 1.224 1.848.816 3.384 1.992 4.608 3.528l-4.536 4.104C67.072 7.184 65.092 6.2 62.764 6.2c-1.368 0-2.592.3-3.672.9-1.056.6-1.884 1.452-2.484 2.556-.576 1.08-.864 2.328-.864 3.744 0 1.416.288 2.676.864 3.78a6.431 6.431 0 002.484 2.52c1.08.6 2.304.9 3.672.9 2.328 0 4.308-.984 5.94-2.952l4.536 4.104c-1.224 1.536-2.76 2.712-4.608 3.528-1.848.816-3.924 1.224-6.228 1.224z" fill="#114E13"/><mask id="a" style="mask-type:alpha" maskUnits="userSpaceOnUse" x="0" y="0" width="74" height="27"><path d="M22.572 20.348V26H0v-4.464L12.708 6.452H.324V.8h21.708v4.464L9.324 20.348h13.248zM41.254 26l-5.22-7.812L30.886 26H22.75l9.18-12.744L23.146.8h8.028l5.04 7.272L41.182.8h7.704l-8.784 12.168L49.462 26h-8.208z" fill="#0D2B00"/><path d="M62.404 26.504c-2.64 0-5.016-.552-7.128-1.656-2.088-1.128-3.732-2.688-4.932-4.68-1.2-1.992-1.8-4.248-1.8-6.768 0-2.52.6-4.776 1.8-6.768 1.2-1.992 2.844-3.54 4.932-4.644C57.388.86 59.764.296 62.404.296c2.304 0 4.38.408 6.228 1.224 1.848.816 3.384 1.992 4.608 3.528l-4.536 4.104C67.072 7.184 65.092 6.2 62.764 6.2c-1.368 0-2.592.3-3.672.9-1.056.6-1.884 1.452-2.484 2.556-.576 1.08-.864 2.328-.864 3.744 0 1.416.288 2.676.864 3.78a6.431 6.431 0 002.484 2.52c1.08.6 2.304.9 3.672.9 2.328 0 4.308-.984 5.94-2.952l4.536 4.104c-1.224 1.536-2.76 2.712-4.608 3.528-1.848.816-3.924 1.224-6.228 1.224z" fill="#0D2B00"/></mask><g filter="url(#filter0_f_2_101)" mask="url(#a)"><circle cx="35.74" cy="36" r="16" fill="#64CE34"/></g><defs><linearGradient id="paint0_linear_2_101" x1="72.792" y1="-4.091" x2="154.948" y2="-8.241" gradientUnits="userSpaceOnUse"><stop stop-color="#6ABD36"/><stop offset="1" stop-color="#058E34"/></linearGradient><filter id="filter0_f_2_101" x="5.74" y="6" width="60" height="60" filterUnits="userSpaceOnUse" color-interpolation-filters="sRGB"><feFlood flood-opacity="0" result="BackgroundImageFix"/><feBlend in="SourceGraphic" in2="BackgroundImageFix" result="shape"/><feGaussianBlur stdDeviation="7" result="effect1_foregroundBlur_2_101"/></filter></defs></svg>

<svg width="152" height="27" viewBox="0 0 152 27" fill="none" xmlns="http://www.w3.org/2000/svg">
<path d="M80.74 2C80.74 0.895431 81.6503 0 82.7549 0C110.621 0 114.753 0 143.138 0C143.814 0 144.463 0.34135 144.832 0.907464L151.415 11.002C151.627 11.327 151.74 11.7066 151.74 12.0945V25C151.74 26.1046 150.845 27 149.74 27H82.74C81.6354 27 80.74 26.1046 80.74 25V2Z" fill="url(#paint0_linear_2_101)"/>
<path d="M95.616 7.4C96.708 7.4 97.656 7.58 98.46 7.94C99.276 8.3 99.9 8.816 100.332 9.488C100.764 10.16 100.98 10.958 100.98 11.882C100.98 12.794 100.764 13.592 100.332 14.276C99.9 14.948 99.276 15.464 98.46 15.824C97.656 16.184 96.708 16.364 95.616 16.364H92.772V20H90.432V7.4H95.616ZM95.508 14.384C96.528 14.384 97.302 14.168 97.83 13.736C98.358 13.304 98.622 12.686 98.622 11.882C98.622 11.078 98.358 10.46 97.83 10.028C97.302 9.596 96.528 9.38 95.508 9.38H92.772V14.384H95.508ZM109.379 20.18C108.095 20.18 106.937 19.904 105.905 19.352C104.873 18.788 104.063 18.014 103.475 17.03C102.887 16.034 102.593 14.924 102.593 13.7C102.593 12.476 102.887 11.372 103.475 10.388C104.063 9.392 104.873 8.618 105.905 8.066C106.937 7.502 108.095 7.22 109.379 7.22C110.663 7.22 111.821 7.502 112.853 8.066C113.885 8.618 114.695 9.386 115.283 10.37C115.871 11.354 116.165 12.464 116.165 13.7C116.165 14.936 115.871 16.046 115.283 17.03C114.695 18.014 113.885 18.788 112.853 19.352C111.821 19.904 110.663 20.18 109.379 20.18ZM109.379 18.128C110.219 18.128 110.975 17.942 111.647 17.57C112.319 17.186 112.847 16.658 113.231 15.986C113.615 15.302 113.807 14.54 113.807 13.7C113.807 12.86 113.615 12.104 113.231 11.432C112.847 10.748 112.319 10.22 111.647 9.848C110.975 9.464 110.219 9.272 109.379 9.272C108.539 9.272 107.783 9.464 107.111 9.848C106.439 10.22 105.911 10.748 105.527 11.432C105.143 12.104 104.951 12.86 104.951 13.7C104.951 14.54 105.143 15.302 105.527 15.986C105.911 16.658 106.439 17.186 107.111 17.57C107.783 17.942 108.539 18.128 109.379 18.128ZM124.531 20.18C123.247 20.18 122.089 19.904 121.057 19.352C120.025 18.788 119.215 18.014 118.627 17.03C118.039 16.034 117.745 14.924 117.745 13.7C117.745 12.476 118.039 11.372 118.627 10.388C119.215 9.392 120.025 8.618 121.057 8.066C122.089 7.502 123.247 7.22 124.531 7.22C125.815 7.22 126.973 7.502 128.005 8.066C129.037 8.618 129.847 9.386 130.435 10.37C131.023 11.354 131.317 12.464 131.317 13.7C131.317 14.936 131.023 16.046 130.435 17.03C129.847 18.014 129.037 18.788 128.005 19.352C126.973 19.904 125.815 20.18 124.531 20.18ZM124.531 18.128C125.371 18.128 126.127 17.942 126.799 17.57C127.471 17.186 127.999 16.658 128.383 15.986C128.767 15.302 128.959 14.54 128.959 13.7C128.959 12.86 128.767 12.104 128.383 11.432C127.999 10.748 127.471 10.22 126.799 9.848C126.127 9.464 125.371 9.272 124.531 9.272C123.691 9.272 122.935 9.464 122.263 9.848C121.591 10.22 121.063 10.748 120.679 11.432C120.295 12.104 120.103 12.86 120.103 13.7C120.103 14.54 120.295 15.302 120.679 15.986C121.063 16.658 121.591 17.186 122.263 17.57C122.935 17.942 123.691 18.128 124.531 18.128ZM133.797 7.4H136.137V18.02H142.725V20H133.797V7.4Z" fill="white"/>
<path d="M22.572 20.348V26H0V21.536L12.708 6.45202H0.324V0.80002H22.032V5.26402L9.324 20.348H22.572Z" fill="#114E13"/>
<path d="M41.254 26L36.034 18.188L30.886 26H22.75L31.93 13.256L23.146 0.80002H31.174L36.214 8.07202L41.182 0.80002H48.886L40.102 12.968L49.462 26H41.254Z" fill="#114E13"/>
<path d="M62.404 26.504C59.764 26.504 57.388 25.952 55.276 24.848C53.188 23.72 51.544 22.16 50.344 20.168C49.144 18.176 48.544 15.92 48.544 13.4C48.544 10.88 49.144 8.62402 50.344 6.63202C51.544 4.64002 53.188 3.09202 55.276 1.98802C57.388 0.86002 59.764 0.296021 62.404 0.296021C64.708 0.296021 66.784 0.704021 68.632 1.52002C70.48 2.33602 72.016 3.51202 73.24 5.04802L68.704 9.15202C67.072 7.18402 65.092 6.20002 62.764 6.20002C61.396 6.20002 60.172 6.50002 59.092 7.10002C58.036 7.70002 57.208 8.55202 56.608 9.65602C56.032 10.736 55.744 11.984 55.744 13.4C55.744 14.816 56.032 16.076 56.608 17.18C57.208 18.26 58.036 19.1 59.092 19.7C60.172 20.3 61.396 20.6 62.764 20.6C65.092 20.6 67.072 19.616 68.704 17.648L73.24 21.752C72.016 23.288 70.48 24.464 68.632 25.28C66.784 26.096 64.708 26.504 62.404 26.504Z" fill="#114E13"/>
<mask id="mask0_2_101" style="mask-type:alpha" maskUnits="userSpaceOnUse" x="0" y="0" width="74" height="27">
<path d="M22.572 20.348V26H0V21.536L12.708 6.45202H0.324V0.80002H22.032V5.26402L9.324 20.348H22.572Z" fill="#0D2B00"/>
<path d="M41.254 26L36.034 18.188L30.886 26H22.75L31.93 13.256L23.146 0.80002H31.174L36.214 8.07202L41.182 0.80002H48.886L40.102 12.968L49.462 26H41.254Z" fill="#0D2B00"/>
<path d="M62.404 26.504C59.764 26.504 57.388 25.952 55.276 24.848C53.188 23.72 51.544 22.16 50.344 20.168C49.144 18.176 48.544 15.92 48.544 13.4C48.544 10.88 49.144 8.62402 50.344 6.63202C51.544 4.64002 53.188 3.09202 55.276 1.98802C57.388 0.86002 59.764 0.296021 62.404 0.296021C64.708 0.296021 66.784 0.704021 68.632 1.52002C70.48 2.33602 72.016 3.51202 73.24 5.04802L68.704 9.15202C67.072 7.18402 65.092 6.20002 62.764 6.20002C61.396 6.20002 60.172 6.50002 59.092 7.10002C58.036 7.70002 57.208 8.55202 56.608 9.65602C56.032 10.736 55.744 11.984 55.744 13.4C55.744 14.816 56.032 16.076 56.608 17.18C57.208 18.26 58.036 19.1 59.092 19.7C60.172 20.3 61.396 20.6 62.764 20.6C65.092 20.6 67.072 19.616 68.704 17.648L73.24 21.752C72.016 23.288 70.48 24.464 68.632 25.28C66.784 26.096 64.708 26.504 62.404 26.504Z" fill="#0D2B00"/>
</mask>
<g mask="url(#mask0_2_101)">
<g filter="url(#filter0_f_2_101)">
<circle cx="35.74" cy="36" r="16" fill="#64CE34"/>
</g>
</g>
<defs>
<filter id="filter0_f_2_101" x="5.73999" y="6" width="60" height="60" filterUnits="userSpaceOnUse" color-interpolation-filters="sRGB">
<feFlood flood-opacity="0" result="BackgroundImageFix"/>
<feBlend mode="normal" in="SourceGraphic" in2="BackgroundImageFix" result="shape"/>
<feGaussianBlur stdDeviation="7" result="effect1_foregroundBlur_2_101"/>
</filter>
<linearGradient id="paint0_linear_2_101" x1="72.7922" y1="-4.0909" x2="154.948" y2="-8.24082" gradientUnits="userSpaceOnUse">
<stop stop-color="#6ABD36"/>
<stop offset="1" stop-color="#058E34"/>
</linearGradient>
</defs>
</svg>
